X:15
T:Reynold's Reply
M:C|
L:1/8
C:© Paul Gitlitz 2008
N:  For Brad inspired by his great tune Skippingham
K:G
"G6"g2fg-  gG2A|"Am7"BAcA "D7"^cd2e|"G6"g2bg-  gG2A|"Am7"BGBA- "D7"A2de|!
"G6"g2fg-  gG2A|"Am7"BAcA "D7"^cd3|"G6"gb2g dg2d|1"D7"B_BA2 "G6"G2=Bd:|2"D7"B_BA2 "G6"G2FG|!
|:"D"AD2D D2A2-|AGAB "C"cBA2|"G"BG2G G2B2-|Bcdc B4|!
"A7"^cG2G G2c2-|^cAcd edc2|1"D"d3"C"e-e2=c2-|=c"Bm"d3 B4:|2"D"d3"Ebdim"^d-d2"A7/E"e2-|e=f3"D"^f4|]
